X:5158
T:Female Drummer. JC.167
M:2/4
L:1/8
Q:240
S:John Clare,Poet,Helpstone (1793-1864)
R:Air
O:England
A:Northamptonshire
N:
Z:P Headford
K:G
d|g2fg|edcB|cAGF|G3G|A2AB|cBcd|efge|d3:|!
|:A|A2AB|cBcd|egfa|g2fg|gfge|edcB|cAGF|G3:|]
W:Song text exists. See Deacon.
